humanity-icon-theme/Humanity/mimes/16/application-x-sln.svg

<?xml version="1.0" encoding="UTF-8" standalone="no"?>
<!-- Created with Inkscape (http://www.inkscape.org/) -->

<svg
   xmlns:svg="http://www.w3.org/2000/svg"
   xmlns="http://www.w3.org/2000/svg"
   xmlns:xlink="http://www.w3.org/1999/xlink"
   version="1.1"
   width="16"
   height="16"
   id="svg3150">
  <defs
     id="defs3152">
    <linearGradient
       x1="-51.786404"
       y1="50.786446"
       x2="-51.786404"
       y2="2.9062471"
       id="linearGradient4547"
       xlink:href="#linearGradient2490"
       gradientUnits="userSpaceOnUse"
       gradientTransform="matrix(0.3000362,0,0,0.3120485,21.157141,-0.3741276)" />
    <linearGradient
       x1="24.528191"
       y1="-0.67594981"
       x2="24.000004"
       y2="21.000938"
       id="linearGradient4545"
       xlink:href="#linearGradient3993"
       gradientUnits="userSpaceOnUse"
       gradientTransform="matrix(0.3715633,0,0,0.3334383,-0.9175205,-0.0025171)" />
    <linearGradient
       id="linearGradient4559">
      <stop
         id="stop4561"
         style="stop-color:#c0c0c0;stop-opacity:1"
         offset="0" />
      <stop
         id="stop4563"
         style="stop-color:#949492;stop-opacity:1"
         offset="1" />
    </linearGradient>
    <linearGradient
       x1="17.288921"
       y1="2.184907"
       x2="15.179585"
       y2="5.8214641"
       id="linearGradient4565"
       xlink:href="#linearGradient4559"
       gradientUnits="userSpaceOnUse"
       gradientTransform="matrix(0.6844293,0,0,0.6820072,-0.2131519,0.1569169)" />
    <linearGradient
       id="linearGradient8589">
      <stop
         id="stop8591"
         style="stop-color:#fefefe;stop-opacity:1"
         offset="0" />
      <stop
         id="stop8593"
         style="stop-color:#cbcbcb;stop-opacity:1"
         offset="1" />
    </linearGradient>
    <linearGradient
       x1="32.892288"
       y1="8.0590115"
       x2="36.358372"
       y2="5.4565363"
       id="linearGradient4543"
       xlink:href="#linearGradient8589"
       gradientUnits="userSpaceOnUse"
       gradientTransform="matrix(0.3707081,0,0,0.3548465,-0.8566575,-0.04895116)" />
    <linearGradient
       id="linearGradient3993">
      <stop
         id="stop3995"
         style="stop-color:#a3c0d0;stop-opacity:1"
         offset="0" />
      <stop
         id="stop4001"
         style="stop-color:#427da1;stop-opacity:1"
         offset="1" />
    </linearGradient>
    <linearGradient
       id="linearGradient2490">
      <stop
         id="stop2492"
         style="stop-color:#2e4a5a;stop-opacity:1"
         offset="0" />
      <stop
         id="stop2494"
         style="stop-color:#6e8796;stop-opacity:1"
         offset="1" />
    </linearGradient>
  </defs>
  <g
     id="layer1">
    <path
       d="m 1.4976268,0.49762721 c 2.980045,0 4.9376418,0 7.9176887,0 0.522766,0.16184396 4.3536885,2.61362219 5.0870585,3.89029659 0,3.907463 0,7.2069842 0,11.1144502 -4.334914,0 -8.6698338,0 -13.0047472,0 0,-5.001584 0,-10.0031638 0,-15.00474679 z"
       id="rect2594"
       style="fill:url(#linearGradient4545);fill-opacity:1;stroke:url(#linearGradient4547);stroke-width:0.9952535;stroke-linecap:butt;stroke-linejoin:round;stroke-miterlimit:4;stroke-opacity:1;stroke-dasharray:none;stroke-dashoffset:0;display:inline" />
    <path
       d="M 5.7761313,5 C 4.3701298,5.0001536 2.6770769,6.0025522 2,7.6490066 c 0,1.2803531 0,2.5607064 0,3.8410594 0.3144581,1.175987 0.8119877,2.082977 1.2318477,3.057395 l 1.934116,-0.772627 C 4.7218539,12.902629 4.1394234,12.032163 3.934116,11.600441 3.3593409,10.391618 3.1493217,9.850716 3.1973099,8.9293597 3.2437103,8.0385871 3.5649282,7.4898225 4.1298301,6.9646798 4.694743,6.4395832 5.4646535,6.1786171 6.3978114,6.3024282 8.3741021,6.564927 9.01005,7.9989689 9.0572206,8.6975717 9.0960383,9.2721624 8.6759823,10.687247 7.1576428,10.618102 6.105071,10.570084 5.0711611,9.9488882 5,9 4.9475799,8.3006622 5.8574274,7.6433339 7,8 7.1839072,8.0573739 7.2078635,7.1606005 7,7 6.4648723,6.5865502 3.9928309,7.3759542 4,9 4.00664,10.50501 5.8411617,11.472283 7.0540296,11.479028 9.5941682,11.493358 10.081469,9.570924 9.9897413,8.2450332 9.8881025,6.7758268 7.9669655,4.9997562 5.7761313,5 z"
       id="path3607"
       style="fill:#eeeeec;fill-opacity:1;fill-rule:evenodd;stroke:none" />
    <path
       d="m 12.719801,5 -1.920299,0.7726268 c 0.440926,0.8723039 1.019211,1.7425272 1.223048,2.174393 0.570668,1.2088263 0.779187,1.7496759 0.731542,2.6710822 -0.04607,0.890623 -0.364982,1.42845 -0.925858,1.953642 -0.560871,0.525097 -1.325292,0.797153 -2.2517796,0.673289 C 7.6142709,12.982732 7.0468331,11.6986 7,11 6.9614591,10.425508 7.4925103,8.930854 9,9 c 1.045052,0.048018 1.929352,0.051114 2,1 0.05204,0.699291 -0.865594,1.356712 -2,1 -0.1826041,-0.05733 -0.2063756,0.8394 0,1 0.5313044,0.413496 3.007114,-0.376004 3,-2 C 11.993367,8.4950396 10.204204,8.0067497 9,8 6.4780001,7.985572 5.9089298,9.6739635 6,11 6.1009085,12.469057 8.0185068,14.547856 10.193693,14.547461 11.628594,14.547385 13.36806,13.484142 14,11.754966 14,10.581796 14,9.4225471 14,8.2560707 13.693756,6.9825373 13.159531,6.0279328 12.719801,5 z"
       id="path3611"
       style="fill:#a9c5d3;fill-opacity:1;fill-rule:evenodd;stroke:none" />
    <path
       d="M 9.5,0.4979205 C 9.5,2.041279 9.5,4.5 9.5,4.5 c 0,0 4.080603,0 5.00208,0 0,-1.9018156 -3.00574,-4.0020795 -5.00208,-4.0020795 z"
       id="path12038"
       style="fill:url(#linearGradient4543);fill-opacity:1;fill-rule:evenodd;stroke:url(#linearGradient4565);stroke-width:0.9952535;stroke-linecap:butt;stroke-linejoin:round;stroke-miterlimit:4;stroke-opacity:1;stroke-dasharray:none;display:inline" />
  </g>
</svg>

<?xml version="1.0" encoding="UTF-8" standalone="no"?>
<!-- Created with Inkscape (http://www.inkscape.org/) -->
<svg id="svg3150" xmlns="http://www.w3.org/2000/svg" height="16" width="16" version="1.1" xmlns:xlink="http://www.w3.org/1999/xlink">
 <defs id="defs3152">
  <linearGradient id="linearGradient4547" y2="2.9062" gradientUnits="userSpaceOnUse" x2="-51.786" gradientTransform="matrix(.30004 0 0 .31205 21.157 -.37413)" y1="50.786" x1="-51.786">
   <stop id="stop2492" style="stop-color:#2e4a5a" offset="0"/>
   <stop id="stop2494" style="stop-color:#6e8796" offset="1"/>
  </linearGradient>
  <linearGradient id="linearGradient4545" y2="21.001" gradientUnits="userSpaceOnUse" x2="24" gradientTransform="matrix(.37156 0 0 .33344 -.91752 -.0025171)" y1="-.67595" x1="24.528">
   <stop id="stop3995" style="stop-color:#a3c0d0" offset="0"/>
   <stop id="stop4001" style="stop-color:#427da1" offset="1"/>
  </linearGradient>
  <linearGradient id="linearGradient4565" y2="5.8215" gradientUnits="userSpaceOnUse" x2="15.18" gradientTransform="matrix(.68443 0 0 .68201 -.21315 .15692)" y1="2.1849" x1="17.289">
   <stop id="stop4561" style="stop-color:#c0c0c0" offset="0"/>
   <stop id="stop4563" style="stop-color:#949492" offset="1"/>
  </linearGradient>
  <linearGradient id="linearGradient4543" y2="5.4565" gradientUnits="userSpaceOnUse" x2="36.358" gradientTransform="matrix(.37071 0 0 .35485 -.85666 -.048951)" y1="8.059" x1="32.892">
   <stop id="stop8591" style="stop-color:#fefefe" offset="0"/>
   <stop id="stop8593" style="stop-color:#cbcbcb" offset="1"/>
  </linearGradient>
 </defs>
 <g id="layer1">
  <path id="rect2594" style="stroke-linejoin:round;stroke:url(#linearGradient4547);stroke-width:.99525;fill:url(#linearGradient4545)" d="m1.4976 0.49763h7.9177c0.52277 0.16184 4.3537 2.6136 5.0871 3.8903v11.114h-13.005v-15.005z"/>
  <path id="path3607" style="fill:#eeeeec;fill-rule:evenodd" d="m5.7761 5c-1.406 0.0002-3.099 1.0026-3.7761 2.649v3.8411c0.31446 1.176 0.81199 2.083 1.2318 3.0574l1.9341-0.77263c-0.444-0.872-1.0265-1.743-1.2318-2.175-0.5748-1.208-0.7848-1.7493-0.7368-2.6706 0.0464-0.8908 0.3676-1.4396 0.9325-1.9647s1.3349-0.7861 2.268-0.6623c1.9763 0.2625 2.6122 1.6966 2.6594 2.3952 0.0388 0.5746-0.3812 1.9894-1.8996 1.9204-1.0525-0.048-2.0864-0.6691-2.1576-1.618-0.0524-0.6993 0.8574-1.3567 2-1 0.1839 0.0574 0.2079-0.8394 0-1-0.5351-0.4134-3.0072 0.376-3 2 0.0066 1.505 1.8412 2.472 3.054 2.479 2.5402 0.014 3.027-1.9081 2.9357-3.234-0.1016-1.4692-2.0227-3.2452-4.2136-3.245z"/>
  <path id="path3611" style="fill:#a9c5d3;fill-rule:evenodd" d="m12.72 5-1.9203 0.77263c0.44093 0.8723 1.0192 1.7425 1.223 2.1744 0.57067 1.2088 0.77919 1.7497 0.73154 2.6711-0.04607 0.89062-0.36498 1.4284-0.92586 1.9536-0.56087 0.5251-1.3253 0.79715-2.2518 0.67329-1.9625-0.262-2.53-1.546-2.5768-2.245-0.0385-0.574 0.4925-2.0691 2-2 1.0451 0.048018 1.9294 0.051114 2 1 0.05204 0.69929-0.86559 1.3567-2 1-0.1826-0.05733-0.20638 0.8394 0 1 0.5313 0.4135 3.0071-0.376 3-2-0.007-1.505-1.796-1.9933-3-2-2.522-0.0144-3.0911 1.674-3 3 0.1009 1.469 2.0185 3.548 4.194 3.547 1.435 0 3.174-1.063 3.806-2.792v-3.4989c-0.306-1.2736-0.84-2.2282-1.28-3.2561z"/>
  <path id="path12038" style="stroke-linejoin:round;fill-rule:evenodd;stroke:url(#linearGradient4565);stroke-width:.99525;fill:url(#linearGradient4543)" d="m9.5 0.49792v4.0021h5.0021c0-1.9018-3.0057-4.0021-5.0021-4.0021z"/>
 </g>
</svg>
